albertroad.htmlalbertroad.htmlalbertroad.htmlalbertroad.htmlalbertroad.htmlalbertroad.htmlalbertroad.htmlalbertroad.htmlalbertroad.htmlDiarmaid Moynihan
albertroad.htmlFrom <I>Calico: Songdogs</I>
albertroad.htmlalbertroad.html<PRE>T:Happy Aunt, The
T:Happy Aunt, The
M:C|
L:1/8
Q:185
C:Diarmaid Moynihan
R:reel
D:Calico: Songdogs
Z:Devin McCabe
K:G
GdcB BdcB|GdcB GE (3EFG|DGcB BdcB|1cdcB ~G3D:|2cdcB ~G3d||
!:d2cB GEGA|dedc BG (3EFG|d2cB GEGA|1(3Bcd cB ~G3d:|2(3Bcd cB ~G3D||

%  ABC2Win Version 2.1 3/20/2001
albertroad.htmlalbertroad.htmlalbertroad.htmlalbertroad.htmlalbertroad.htmlalbertroad.htmlalbertroad.html